public/assets/logos/bubble.svg

<svg width="216" height="51" viewBox="0 0 216 51" fill="none" xmlns="http://www.w3.org/2000/svg">
<mask id="mask0_319_328" style="mask-type:luminance" maskUnits="userSpaceOnUse" x="0" y="0" width="216" height="51">
<path d="M215.45 0.678711H0V50.0628H215.45V0.678711Z" fill="white"/>
</mask>
<g mask="url(#mask0_319_328)">
<path d="M105.004 13.8252C100.653 13.8252 96.3646 15.6932 93.0906 19.3658V1.25488H86.6113V31.7457C86.6113 31.7464 86.6113 31.7471 86.6113 31.748C86.6113 41.6463 94.6355 49.6705 104.534 49.6705C114.432 49.6705 122.457 41.6463 122.457 31.748C122.457 21.8496 114.903 13.8252 105.004 13.8252ZM104.534 42.7674C98.448 42.7674 93.5143 37.8337 93.5143 31.7479C93.5143 25.6619 98.448 20.7282 104.534 20.7282C110.62 20.7282 115.554 25.6619 115.554 31.7479C115.554 37.8338 110.62 42.7674 104.534 42.7674Z" fill="white"/>
</g>
<mask id="mask1_319_328" style="mask-type:luminance" maskUnits="userSpaceOnUse" x="0" y="0" width="216" height="51">
<path d="M215.45 0.678711H0V50.0628H215.45V0.678711Z" fill="white"/>
</mask>
<g mask="url(#mask1_319_328)">
<path d="M145.147 13.8252C140.796 13.8252 136.507 15.6932 133.233 19.3658V1.25488H126.754V31.7457C126.754 31.7464 126.754 31.7471 126.754 31.748C126.754 41.6463 134.778 49.6705 144.677 49.6705C154.575 49.6705 162.599 41.6463 162.599 31.748C162.599 21.8496 155.045 13.8252 145.147 13.8252ZM144.677 42.7674C138.591 42.7674 133.657 37.8337 133.657 31.7479C133.657 25.6619 138.591 20.7282 144.677 20.7282C150.762 20.7282 155.696 25.6619 155.696 31.7479C155.696 37.8338 150.762 42.7674 144.677 42.7674Z" fill="white"/>
</g>
<mask id="mask2_319_328" style="mask-type:luminance" maskUnits="userSpaceOnUse" x="0" y="0" width="216" height="51">
<path d="M215.45 0.678711H0V50.0628H215.45V0.678711Z" fill="white"/>
</mask>
<g mask="url(#mask2_319_328)">
<path d="M50.1543 34.8877V14.7979H57.1037V34.8247C57.1037 39.942 60.073 43.2271 65.0639 43.2271C70.1179 43.2271 73.0242 40.0682 73.0242 34.8247V14.7979H80.0366V34.8877C80.0366 44.1746 74.414 49.671 65.0639 49.671C55.9664 49.671 50.1543 43.9852 50.1543 34.8877Z" fill="white"/>
</g>
<mask id="mask3_319_328" style="mask-type:luminance" maskUnits="userSpaceOnUse" x="0" y="0" width="216" height="51">
<path d="M215.45 0.678711H0V50.0628H215.45V0.678711Z" fill="white"/>
</mask>
<g mask="url(#mask3_319_328)">
<path d="M175.139 1.25488H168.189V48.8491H175.139V1.25488Z" fill="white"/>
</g>
<mask id="mask4_319_328" style="mask-type:luminance" maskUnits="userSpaceOnUse" x="0" y="0" width="216" height="51">
<path d="M215.45 0.678711H0V50.0628H215.45V0.678711Z" fill="white"/>
</mask>
<g mask="url(#mask4_319_328)">
<path d="M214.478 34.508H187.881C188.892 39.8147 192.619 43.4158 199.189 43.4158C203.043 43.4158 207.718 41.9627 210.751 39.7517L213.657 44.8687C210.182 47.4591 204.686 49.6069 198.937 49.6069C186.175 49.6069 180.679 40.6992 180.679 31.7282C180.679 26.6109 182.258 22.378 185.48 19.0296C188.702 15.6813 192.935 13.9756 198.052 13.9756C202.917 13.9756 206.96 15.4918 210.056 18.5873C213.151 21.683 214.731 25.8526 214.731 31.1593C214.73 32.1073 214.667 33.2443 214.478 34.508ZM187.881 28.8219H207.718C207.15 23.452 203.17 19.9774 198.052 19.9774C192.808 19.9774 188.892 23.5152 187.881 28.8219Z" fill="white"/>
</g>
<mask id="mask5_319_328" style="mask-type:luminance" maskUnits="userSpaceOnUse" x="0" y="0" width="216" height="51">
<path d="M215.45 0.678711H0V50.0628H215.45V0.678711Z" fill="white"/>
</mask>
<g mask="url(#mask5_319_328)">
<path d="M28.0902 13.8252C23.739 13.8252 19.4505 15.6932 16.1764 19.3658V1.25488H9.69727V31.7457C9.69727 31.7464 9.69727 31.7471 9.69727 31.748C9.69727 41.6463 17.7215 49.6705 27.6199 49.6705C37.5183 49.6705 45.5426 41.6463 45.5426 31.748C45.5426 21.8496 37.9885 13.8252 28.0902 13.8252ZM27.6199 42.7674C21.534 42.7674 16.6003 37.8337 16.6003 31.7479C16.6003 25.6619 21.534 20.7282 27.6199 20.7282C33.7058 20.7282 38.6395 25.6619 38.6395 31.7479C38.6395 37.8338 33.7058 42.7674 27.6199 42.7674Z" fill="white"/>
</g>
<mask id="mask6_319_328" style="mask-type:luminance" maskUnits="userSpaceOnUse" x="0" y="0" width="216" height="51">
<path d="M215.45 0.678711H0V50.0628H215.45V0.678711Z" fill="white"/>
</mask>
<g mask="url(#mask6_319_328)">
<path d="M4.98667 40.8066C2.53889 40.8066 0.554688 42.791 0.554688 45.2386C0.554688 47.6863 2.53889 49.6706 4.98667 49.6706C7.43444 49.6706 9.41864 47.6863 9.41864 45.2386C9.41864 42.791 7.43444 40.8066 4.98667 40.8066Z" fill="#0000FF"/>
</g>
</svg>

<svg xmlns="http://www.w3.org/2000/svg" width="216" height="51" fill="none" xmlns:v="https://vecta.io/nano"><mask id="A" maskUnits="userSpaceOnUse" x="0" y="0" width="216" height="51"><path d="M215.45.679H0v49.384h215.45V.679z" fill="#fff"/></mask><g mask="url(#A)"><path d="M105.004 13.825c-4.351 0-8.639 1.868-11.913 5.541V1.255h-6.479v30.491c0 9.901 8.024 17.925 17.923 17.925s17.923-8.024 17.923-17.922-7.554-17.923-17.453-17.923zm-.47 28.942c-6.086 0-11.02-4.934-11.02-11.019s4.934-11.02 11.02-11.02 11.02 4.934 11.02 11.02-4.934 11.02-11.02 11.02z" fill="#fff"/></g><mask id="B" maskUnits="userSpaceOnUse" x="0" y="0" width="216" height="51"><path d="M215.45.679H0v49.384h215.45V.679z" fill="#fff"/></mask><g mask="url(#B)"><path d="M145.147 13.825c-4.351 0-8.64 1.868-11.914 5.541V1.255h-6.479v30.491c0 9.901 8.024 17.925 17.923 17.925s17.922-8.024 17.922-17.922-7.554-17.923-17.452-17.923zm-.47 28.942c-6.086 0-11.02-4.934-11.02-11.019s4.934-11.02 11.02-11.02 11.019 4.934 11.019 11.02-4.934 11.02-11.019 11.02z" fill="#fff"/></g><mask id="C" maskUnits="userSpaceOnUse" x="0" y="0" width="216" height="51"><path d="M215.45.679H0v49.384h215.45V.679z" fill="#fff"/></mask><g mask="url(#C)"><path d="M50.154 34.888v-20.09h6.949v20.027c0 5.117 2.969 8.402 7.96 8.402 5.054 0 7.96-3.159 7.96-8.402V14.798h7.012v20.09c0 9.287-5.623 14.783-14.973 14.783-9.098 0-14.91-5.686-14.91-14.783z" fill="#fff"/></g><mask id="D" maskUnits="userSpaceOnUse" x="0" y="0" width="216" height="51"><path d="M215.45.679H0v49.384h215.45V.679z" fill="#fff"/></mask><g mask="url(#D)"><path d="M175.139 1.255h-6.95v47.594h6.95V1.255z" fill="#fff"/></g><mask id="E" maskUnits="userSpaceOnUse" x="0" y="0" width="216" height="51"><path d="M215.45.679H0v49.384h215.45V.679z" fill="#fff"/></mask><g mask="url(#E)"><path d="M214.478 34.508h-26.597c1.011 5.307 4.738 8.908 11.308 8.908 3.854 0 8.529-1.453 11.562-3.664l2.906 5.117c-3.475 2.59-8.971 4.738-14.72 4.738-12.762 0-18.258-8.908-18.258-17.879 0-5.117 1.579-9.35 4.801-12.699s7.455-5.054 12.572-5.054c4.865 0 8.908 1.516 12.004 4.612s4.675 7.265 4.675 12.572c-.001.948-.064 2.085-.253 3.349zm-26.597-5.686h19.837c-.568-5.37-4.548-8.844-9.666-8.844-5.244 0-9.16 3.538-10.171 8.845z" fill="#fff"/></g><mask id="F" maskUnits="userSpaceOnUse" x="0" y="0" width="216" height="51"><path d="M215.45.679H0v49.384h215.45V.679z" fill="#fff"/></mask><g mask="url(#F)"><path d="M28.09 13.825c-4.351 0-8.64 1.868-11.914 5.541V1.255H9.697v30.491c0 9.901 8.024 17.925 17.923 17.925s17.923-8.024 17.923-17.922-7.554-17.923-17.452-17.923zm-.47 28.942c-6.086 0-11.02-4.934-11.02-11.019s4.934-11.02 11.02-11.02 11.02 4.934 11.02 11.02a11.02 11.02 0 0 1-11.02 11.02z" fill="#fff"/></g><mask id="G" maskUnits="userSpaceOnUse" x="0" y="0" width="216" height="51"><path d="M215.45.679H0v49.384h215.45V.679z" fill="#fff"/></mask><g mask="url(#G)"><path d="M4.987 40.807c-2.448 0-4.432 1.984-4.432 4.432s1.984 4.432 4.432 4.432 4.432-1.984 4.432-4.432-1.984-4.432-4.432-4.432z" fill="#00f"/></g></svg>
